docs/assets/brands/graygrids-white.svg

<svg width="174" height="40" viewBox="0 0 174 40" fill="none" xmlns="http://www.w3.org/2000/svg">
<g clip-path="url(#clip0_2165_2924)">
<path d="M36.5 20C36.5 10.0589 28.4411 2 18.5 2C8.55887 2 0.5 10.0589 0.5 20C0.5 29.9411 8.55887 38 18.5 38C28.4411 38 36.5 29.9411 36.5 20Z" fill="url(#paint0_linear_2165_2924)"/>
<path d="M36.5 20C36.5 10.0589 28.4411 2 18.5 2C8.55887 2 0.5 10.0589 0.5 20C0.5 29.9411 8.55887 38 18.5 38C28.4411 38 36.5 29.9411 36.5 20Z" fill="url(#paint1_linear_2165_2924)" fill-opacity="0.56"/>
<path d="M18.7865 8.75C21.6369 8.75 24.3277 9.80311 26.41 11.7231C26.5254 11.8295 26.5266 12.0103 26.4156 12.1213L22.0081 16.5288C21.9014 16.6356 21.7299 16.6382 21.6131 16.5425C20.8171 15.8908 19.8294 15.5369 18.7883 15.5369C16.3238 15.5352 14.3199 17.5391 14.3199 20H7.53125C7.53125 13.7967 12.5814 8.75 18.7865 8.75Z" fill="white"/>
<path d="M14.3199 20C14.3199 22.3097 16.0847 24.2161 18.3375 24.4424C18.4877 24.4575 18.6072 24.5806 18.6072 24.7316V30.9643C18.6072 31.1213 18.4778 31.2483 18.3208 31.2419C12.3294 30.9964 7.53125 26.0475 7.53125 20H14.3199Z" fill="white"/>
<path opacity="0.56" d="M25.4747 20.8931H22.8204C22.665 20.8931 22.5391 21.0191 22.5391 21.1744V23.8269C22.5391 23.9823 22.665 24.1082 22.8204 24.1082H25.4747C25.63 24.1082 25.7559 23.9823 25.7559 23.8269V21.1744C25.7559 21.0191 25.63 20.8931 25.4747 20.8931Z" fill="white"/>
<path opacity="0.4" d="M29.0468 20.8931H26.3925C26.2372 20.8931 26.1113 21.0191 26.1113 21.1744V23.8269C26.1113 23.9823 26.2372 24.1082 26.3925 24.1082H29.0468C29.2021 24.1082 29.3281 23.9823 29.3281 23.8269V21.1744C29.3281 21.0191 29.2021 20.8931 29.0468 20.8931Z" fill="white"/>
<path opacity="0.72" d="M25.4747 24.4648H22.8204C22.665 24.4648 22.5391 24.5907 22.5391 24.746V27.3986C22.5391 27.5539 22.665 27.6798 22.8204 27.6798H25.4747C25.63 27.6798 25.7559 27.5539 25.7559 27.3986V24.746C25.7559 24.5907 25.63 24.4648 25.4747 24.4648Z" fill="white"/>
<path opacity="0.88" d="M21.9013 24.4648H19.247C19.0917 24.4648 18.9658 24.5907 18.9658 24.746V27.3986C18.9658 27.5539 19.0917 27.6798 19.247 27.6798H21.9013C22.0567 27.6798 22.1826 27.5539 22.1826 27.3986V24.746C22.1826 24.5907 22.0567 24.4648 21.9013 24.4648Z" fill="white"/>
<path opacity="0.56" d="M29.0468 24.4648H26.3925C26.2372 24.4648 26.1113 24.5907 26.1113 24.746V27.3986C26.1113 27.5539 26.2372 27.6798 26.3925 27.6798H29.0468C29.2021 27.6798 29.3281 27.5539 29.3281 27.3986V24.746C29.3281 24.5907 29.2021 24.4648 29.0468 24.4648Z" fill="white"/>
<path opacity="0.88" d="M25.4747 28.0347H22.8204C22.665 28.0347 22.5391 28.1606 22.5391 28.3159V30.9685C22.5391 31.1238 22.665 31.2497 22.8204 31.2497H25.4747C25.63 31.2497 25.7559 31.1238 25.7559 30.9685V28.3159C25.7559 28.1606 25.63 28.0347 25.4747 28.0347Z" fill="white"/>
<path opacity="0.96" d="M21.9013 28.0347H19.247C19.0917 28.0347 18.9658 28.1606 18.9658 28.3159V30.9685C18.9658 31.1238 19.0917 31.2497 19.247 31.2497H21.9013C22.0567 31.2497 22.1826 31.1238 22.1826 30.9685V28.3159C22.1826 28.1606 22.0567 28.0347 21.9013 28.0347Z" fill="white"/>
<path opacity="0.72" d="M29.0468 28.0347H26.3925C26.2372 28.0347 26.1113 28.1606 26.1113 28.3159V30.9685C26.1113 31.1238 26.2372 31.2497 26.3925 31.2497H29.0468C29.2021 31.2497 29.3281 31.1238 29.3281 30.9685V28.3159C29.3281 28.1606 29.2021 28.0347 29.0468 28.0347Z" fill="white"/>
<path d="M57.4419 12.125H60.2769V28.379C60.2769 29.4185 60.035 30.3845 59.5512 31.277C59.0787 32.18 58.4375 32.9622 57.6275 33.6238C56.8175 34.2957 55.895 34.8155 54.86 35.183C53.825 35.561 52.745 35.75 51.62 35.75C50.45 35.75 49.3194 35.5033 48.2281 35.0098C47.1369 34.5268 46.1806 33.8757 45.3594 33.0567C44.5494 32.2482 43.9644 31.34 43.6044 30.332L46.2031 29.2295C46.4169 29.954 46.7994 30.605 47.3506 31.1825C47.9131 31.7705 48.5656 32.2325 49.3081 32.5685C50.0619 32.915 50.8325 33.0882 51.62 33.0882C52.3625 33.0882 53.0769 32.9675 53.7631 32.726C54.4606 32.4845 55.085 32.1485 55.6362 31.718C56.1987 31.298 56.6375 30.7993 56.9525 30.2218C57.2787 29.6548 57.4419 29.0405 57.4419 28.379V25.2447C56.8681 26.1477 56.1087 26.8827 55.1637 27.4497C54.23 28.0063 53.1387 28.2845 51.89 28.2845C50.6975 28.2845 49.5781 28.0693 48.5319 27.6388C47.4856 27.2083 46.5687 26.615 45.7812 25.859C44.9937 25.0925 44.375 24.2105 43.925 23.213C43.475 22.2155 43.25 21.1445 43.25 20C43.25 18.8555 43.475 17.7845 43.925 16.787C44.375 15.779 44.9937 14.897 45.7812 14.141C46.5687 13.3745 47.4856 12.776 48.5319 12.3455C49.5781 11.915 50.6975 11.6997 51.89 11.6997C53.1387 11.6997 54.23 11.978 55.1637 12.5345C56.1087 13.091 56.8681 13.826 57.4419 14.7395V12.125ZM51.9069 25.7173C52.9981 25.7173 53.9431 25.4548 54.7419 24.9298C55.5519 24.4048 56.1762 23.7065 56.615 22.835C57.0537 21.9635 57.2731 21.0185 57.2731 20C57.2731 18.95 57.0481 17.9945 56.5981 17.1335C56.1594 16.262 55.535 15.569 54.725 15.0545C53.9262 14.5295 52.9869 14.267 51.9069 14.267C50.8494 14.267 49.8819 14.5243 49.0044 15.0388C48.1269 15.5533 47.4294 16.2463 46.9119 17.1178C46.4056 17.9788 46.1525 18.9395 46.1525 20C46.1525 21.0605 46.4112 22.0265 46.9288 22.898C47.4575 23.759 48.155 24.4468 49.0212 24.9613C49.8987 25.4653 50.8606 25.7173 51.9069 25.7173Z" fill="white"/>
<path d="M62.9844 27.8751V12.1251H65.8194V14.0939C66.4157 13.3589 67.1694 12.7761 68.0807 12.3456C68.9919 11.9046 69.9819 11.6841 71.0507 11.6841C71.7032 11.6841 72.3332 11.7628 72.9407 11.9203L71.7932 14.5664C71.3319 14.4299 70.8819 14.3616 70.4432 14.3616C69.5994 14.3616 68.8232 14.5559 68.1144 14.9444C67.4169 15.3224 66.86 15.8369 66.4438 16.4879C66.0275 17.1389 65.8194 17.8634 65.8194 18.6614V27.8751H62.9844Z" fill="white"/>
<path d="M86.3749 12.1251H89.2099V27.8751H86.3749L86.2568 25.2134C85.728 26.1269 84.9968 26.8671 84.063 27.4341C83.1405 28.0011 82.038 28.2846 80.7555 28.2846C79.518 28.2846 78.3593 28.0694 77.2793 27.6389C76.1993 27.1979 75.243 26.5941 74.4105 25.8276C73.5893 25.0506 72.948 24.1581 72.4868 23.1501C72.0255 22.1421 71.7949 21.0554 71.7949 19.8899C71.7949 18.7664 72.0199 17.7059 72.4699 16.7084C72.9199 15.7109 73.5443 14.8394 74.343 14.0939C75.153 13.3379 76.0868 12.7499 77.1443 12.3299C78.2018 11.8993 79.338 11.6841 80.553 11.6841C81.8805 11.6841 83.0449 11.9781 84.0462 12.5661C85.0474 13.1436 85.8574 13.8944 86.4762 14.8184L86.3749 12.1251ZM80.7049 25.7174C81.8187 25.7174 82.7805 25.4654 83.5905 24.9614C84.4118 24.4469 85.0418 23.7539 85.4805 22.8824C85.9305 22.0109 86.1555 21.0501 86.1555 20.0001C86.1555 18.9291 85.9305 17.9631 85.4805 17.1021C85.0305 16.2306 84.3949 15.5429 83.5737 15.0389C82.7637 14.5244 81.8074 14.2671 80.7049 14.2671C79.5912 14.2671 78.5787 14.5244 77.6674 15.0389C76.7562 15.5534 76.0305 16.2464 75.4905 17.1179C74.9618 17.9789 74.6974 18.9396 74.6974 20.0001C74.6974 21.0606 74.973 22.0266 75.5243 22.8981C76.0755 23.7591 76.8068 24.4469 77.718 24.9614C78.6293 25.4654 79.6249 25.7174 80.7049 25.7174Z" fill="white"/>
<path d="M102.265 12.125H105.269L96.0378 35.75H93.034L96.0884 27.875L90.0303 12.125H93.1353L97.5059 24.2367L102.265 12.125Z" fill="white"/>
<path d="M119.608 12.125H122.443V28.379C122.443 29.4185 122.201 30.3845 121.717 31.277C121.245 32.18 120.603 32.9622 119.793 33.6238C118.983 34.2957 118.061 34.8155 117.026 35.183C115.991 35.561 114.911 35.75 113.786 35.75C112.616 35.75 111.485 35.5033 110.394 35.0098C109.303 34.5268 108.347 33.8757 107.525 33.0567C106.715 32.2482 106.13 31.34 105.77 30.332L108.369 29.2295C108.583 29.954 108.965 30.605 109.517 31.1825C110.079 31.7705 110.732 32.2325 111.474 32.5685C112.228 32.915 112.998 33.0882 113.786 33.0882C114.528 33.0882 115.243 32.9675 115.929 32.726C116.627 32.4845 117.251 32.1485 117.802 31.718C118.365 31.298 118.803 30.7993 119.118 30.2218C119.445 29.6548 119.608 29.0405 119.608 28.379V25.2447C119.034 26.1477 118.275 26.8827 117.33 27.4497C116.396 28.0063 115.305 28.2845 114.056 28.2845C112.863 28.2845 111.744 28.0693 110.698 27.6388C109.652 27.2083 108.735 26.615 107.947 25.859C107.16 25.0925 106.541 24.2105 106.091 23.213C105.641 22.2155 105.416 21.1445 105.416 20C105.416 18.8555 105.641 17.7845 106.091 16.787C106.541 15.779 107.16 14.897 107.947 14.141C108.735 13.3745 109.652 12.776 110.698 12.3455C111.744 11.915 112.863 11.6997 114.056 11.6997C115.305 11.6997 116.396 11.978 117.33 12.5345C118.275 13.091 119.034 13.826 119.608 14.7395V12.125ZM114.073 25.7173C115.164 25.7173 116.109 25.4548 116.908 24.9298C117.718 24.4048 118.342 23.7065 118.781 22.835C119.22 21.9635 119.439 21.0185 119.439 20C119.439 18.95 119.214 17.9945 118.764 17.1335C118.325 16.262 117.701 15.569 116.891 15.0545C116.092 14.5295 115.153 14.267 114.073 14.267C113.015 14.267 112.048 14.5243 111.17 15.0388C110.293 15.5533 109.595 16.2463 109.078 17.1178C108.572 17.9788 108.318 18.9395 108.318 20C108.318 21.0605 108.577 22.0265 109.095 22.898C109.623 23.759 110.321 24.4468 111.187 24.9613C112.065 25.4653 113.027 25.7173 114.073 25.7173Z" fill="white"/>
<path d="M125.15 27.8751V12.1251H127.985V14.0939C128.582 13.3589 129.335 12.7761 130.247 12.3456C131.158 11.9046 132.148 11.6841 133.217 11.6841C133.869 11.6841 134.499 11.7628 135.107 11.9203L133.959 14.5664C133.498 14.4299 133.048 14.3616 132.609 14.3616C131.765 14.3616 130.989 14.5559 130.28 14.9444C129.583 15.3224 129.026 15.8369 128.61 16.4879C128.194 17.1389 127.985 17.8634 127.985 18.6614V27.8751H125.15Z" fill="white"/>
<path d="M135.83 12.1252H138.665V27.8752H135.83V12.1252ZM137.282 9.55791C136.832 9.55791 136.455 9.42141 136.151 9.14841C135.847 8.87541 135.695 8.53416 135.695 8.12466C135.695 7.71516 135.847 7.37391 136.151 7.10091C136.455 6.82791 136.826 6.69141 137.265 6.69141C137.704 6.69141 138.075 6.82791 138.379 7.10091C138.682 7.37391 138.834 7.71516 138.834 8.12466C138.834 8.53416 138.682 8.87541 138.379 9.14841C138.086 9.42141 137.72 9.55791 137.282 9.55791Z" fill="white"/>
<path d="M154.723 4.25H157.558V27.875H154.723V25.1975C154.149 26.1215 153.378 26.867 152.411 27.434C151.443 28.001 150.307 28.2845 149.002 28.2845C147.776 28.2845 146.628 28.0693 145.559 27.6388C144.491 27.2083 143.546 26.615 142.724 25.859C141.914 25.0925 141.279 24.2105 140.818 23.213C140.356 22.2155 140.126 21.1445 140.126 20C140.126 18.8555 140.356 17.7845 140.818 16.787C141.279 15.779 141.914 14.897 142.724 14.141C143.546 13.3745 144.491 12.776 145.559 12.3455C146.628 11.915 147.776 11.6997 149.002 11.6997C150.307 11.6997 151.443 11.9832 152.411 12.5503C153.378 13.1173 154.149 13.8628 154.723 14.7868V4.25ZM149.036 25.7173C150.149 25.7173 151.111 25.4653 151.921 24.9613C152.743 24.4468 153.373 23.7538 153.811 22.8823C154.261 22.0108 154.486 21.05 154.486 20C154.486 18.929 154.261 17.963 153.811 17.102C153.361 16.2305 152.726 15.5428 151.904 15.0388C151.094 14.5243 150.138 14.267 149.036 14.267C147.922 14.267 146.909 14.5243 145.998 15.0388C145.098 15.5533 144.378 16.2463 143.838 17.1178C143.298 17.9788 143.028 18.9395 143.028 20C143.028 21.0605 143.304 22.0265 143.855 22.898C144.406 23.759 145.138 24.4468 146.049 24.9613C146.96 25.4653 147.956 25.7173 149.036 25.7173Z" fill="white"/>
<path d="M165.403 28.1741C164.491 28.1426 163.603 27.9852 162.736 27.7016C161.881 27.4077 161.128 27.0139 160.475 26.5204C159.834 26.0164 159.367 25.4389 159.074 24.7879L161.504 23.8114C161.673 24.1684 161.977 24.5044 162.416 24.8194C162.854 25.1344 163.361 25.3864 163.934 25.5754C164.508 25.7644 165.088 25.8589 165.673 25.8589C166.291 25.8589 166.871 25.7697 167.411 25.5912C167.951 25.4127 168.389 25.1502 168.727 24.8037C169.076 24.4467 169.25 24.0214 169.25 23.5279C169.25 23.0029 169.059 22.5934 168.676 22.2994C168.305 21.9949 167.833 21.7586 167.259 21.5906C166.696 21.4122 166.123 21.2441 165.538 21.0867C164.379 20.8136 163.344 20.4882 162.433 20.1102C161.521 19.7217 160.801 19.2334 160.273 18.6454C159.755 18.0469 159.496 17.2857 159.496 16.3617C159.496 15.3852 159.783 14.5399 160.357 13.8259C160.942 13.1119 161.707 12.5607 162.652 12.1722C163.597 11.7836 164.609 11.5894 165.689 11.5894C167.051 11.5894 168.294 11.8624 169.419 12.4084C170.544 12.9544 171.382 13.6947 171.933 14.6292L169.655 15.8734C169.464 15.4954 169.171 15.1647 168.778 14.8812C168.384 14.5872 167.934 14.3562 167.428 14.1882C166.921 14.0202 166.404 13.9309 165.875 13.9204C165.223 13.8994 164.609 13.9782 164.036 14.1567C163.473 14.3352 163.018 14.6082 162.669 14.9756C162.331 15.3327 162.163 15.7789 162.163 16.3144C162.163 16.8394 162.343 17.2384 162.703 17.5114C163.074 17.7844 163.552 18.0049 164.137 18.1729C164.733 18.3304 165.38 18.5142 166.078 18.7242C167.101 19.0287 168.058 19.3804 168.946 19.7794C169.835 20.1784 170.549 20.6772 171.089 21.2757C171.641 21.8742 171.911 22.6144 171.899 23.4964C171.899 24.4624 171.59 25.3077 170.971 26.0322C170.353 26.7462 169.548 27.2921 168.558 27.6701C167.579 28.0482 166.528 28.2161 165.403 28.1741Z" fill="white"/>
</g>
<defs>
<linearGradient id="paint0_linear_2165_2924" x1="18.5" y1="2" x2="18.5" y2="38" gradientUnits="userSpaceOnUse">
<stop stop-color="#3558EA"/>
<stop offset="1" stop-color="#0000FF"/>
</linearGradient>
<linearGradient id="paint1_linear_2165_2924" x1="23.2893" y1="7.22943" x2="7.43291" y2="54.4749" gradientUnits="userSpaceOnUse">
<stop offset="0.215628" stop-color="#1E1983" stop-opacity="0"/>
<stop offset="0.447191" stop-color="#1E1983" stop-opacity="0.19"/>
<stop offset="0.619792" stop-color="#1E1983"/>
</linearGradient>
<clipPath id="clip0_2165_2924">
<rect width="173" height="40" fill="white" transform="translate(0.5)"/>
</clipPath>
</defs>
</svg>

<svg xmlns="http://www.w3.org/2000/svg" width="174" height="40" fill="none"><g clip-path="url(#a)"><path fill="url(#b)" d="M36.5 20c0-9.941-8.059-18-18-18S.5 10.059.5 20s8.059 18 18 18 18-8.059 18-18"/><path fill="url(#c)" fill-opacity=".56" d="M36.5 20c0-9.941-8.059-18-18-18S.5 10.059.5 20s8.059 18 18 18 18-8.059 18-18"/><path fill="#fff" d="M18.787 8.75c2.85 0 5.54 1.053 7.623 2.973a.276.276 0 0 1 .006.398l-4.408 4.408a.295.295 0 0 1-.395.014A4.47 4.47 0 0 0 14.32 20H7.53c0-6.203 5.05-11.25 11.256-11.25M14.32 20a4.473 4.473 0 0 0 4.017 4.442c.15.015.27.139.27.29v6.232c0 .157-.13.284-.286.278C12.329 30.996 7.53 26.047 7.53 20z"/><path fill="#fff" d="M25.475 20.893H22.82a.28.28 0 0 0-.28.281v2.653a.28.28 0 0 0 .28.281h2.655a.28.28 0 0 0 .28-.281v-2.653a.28.28 0 0 0-.28-.28" opacity=".56"/><path fill="#fff" d="M29.047 20.893h-2.655a.28.28 0 0 0-.28.281v2.653a.28.28 0 0 0 .28.281h2.655a.28.28 0 0 0 .281-.281v-2.653a.28.28 0 0 0-.281-.28" opacity=".4"/><path fill="#fff" d="M25.475 24.465H22.82a.28.28 0 0 0-.28.281v2.653c0 .155.125.28.28.28h2.655a.28.28 0 0 0 .28-.28v-2.653a.28.28 0 0 0-.28-.281" opacity=".72"/><path fill="#fff" d="M21.901 24.465h-2.654a.28.28 0 0 0-.281.281v2.653c0 .155.126.28.281.28h2.654a.28.28 0 0 0 .282-.28v-2.653a.28.28 0 0 0-.282-.281" opacity=".88"/><path fill="#fff" d="M29.047 24.465h-2.655a.28.28 0 0 0-.28.281v2.653c0 .155.125.28.28.28h2.655a.28.28 0 0 0 .281-.28v-2.653a.28.28 0 0 0-.281-.281" opacity=".56"/><path fill="#fff" d="M25.475 28.035H22.82a.28.28 0 0 0-.28.28v2.653a.28.28 0 0 0 .28.282h2.655a.28.28 0 0 0 .28-.282v-2.652a.28.28 0 0 0-.28-.281" opacity=".88"/><path fill="#fff" d="M21.901 28.035h-2.654a.28.28 0 0 0-.281.28v2.653c0 .156.126.282.281.282h2.654a.28.28 0 0 0 .282-.282v-2.652a.28.28 0 0 0-.282-.281" opacity=".96"/><path fill="#fff" d="M29.047 28.035h-2.655a.28.28 0 0 0-.28.28v2.653a.28.28 0 0 0 .28.282h2.655a.28.28 0 0 0 .281-.282v-2.652a.28.28 0 0 0-.281-.281" opacity=".72"/><path fill="#fff" d="M57.442 12.125h2.835v16.254q0 1.56-.726 2.898a7.5 7.5 0 0 1-1.924 2.347 9 9 0 0 1-2.767 1.559 9.4 9.4 0 0 1-3.24.567q-1.755 0-3.392-.74a9.4 9.4 0 0 1-2.869-1.953q-1.215-1.213-1.755-2.725l2.6-1.102a4.75 4.75 0 0 0 1.147 1.953 6.3 6.3 0 0 0 1.957 1.386q1.131.52 2.312.52 1.113 0 2.143-.363a6.4 6.4 0 0 0 1.873-1.008 4.6 4.6 0 0 0 1.316-1.496q.49-.85.49-1.843v-3.134a6.8 6.8 0 0 1-2.278 2.205q-1.4.834-3.274.835a8.7 8.7 0 0 1-3.358-.646 8.7 8.7 0 0 1-2.75-1.78 8.6 8.6 0 0 1-1.857-2.646A7.7 7.7 0 0 1 43.25 20q0-1.717.675-3.213a8.4 8.4 0 0 1 1.856-2.646 8.6 8.6 0 0 1 2.75-1.796 8.7 8.7 0 0 1 3.359-.645q1.873 0 3.274.835a6.6 6.6 0 0 1 2.278 2.204zm-5.535 13.592q1.636 0 2.835-.787a5.3 5.3 0 0 0 1.873-2.095A6.2 6.2 0 0 0 57.273 20q0-1.576-.675-2.866a5.17 5.17 0 0 0-1.873-2.08q-1.198-.787-2.818-.787a5.63 5.63 0 0 0-2.903.772 5.8 5.8 0 0 0-2.092 2.079q-.76 1.291-.76 2.882 0 1.59.777 2.898a6.04 6.04 0 0 0 2.092 2.063q1.317.756 2.886.756m11.077 2.158v-15.75h2.835v1.969a6.36 6.36 0 0 1 2.262-1.748 6.7 6.7 0 0 1 2.97-.662 7.5 7.5 0 0 1 1.89.236l-1.148 2.646a4.8 4.8 0 0 0-1.35-.204q-1.266 0-2.329.582a4.5 4.5 0 0 0-1.67 1.544 3.95 3.95 0 0 0-.625 2.173v9.214zm23.391-15.75h2.835v15.75h-2.835l-.118-2.662a6.2 6.2 0 0 1-2.194 2.221q-1.383.85-3.308.85a9.3 9.3 0 0 1-3.476-.645 9.5 9.5 0 0 1-2.868-1.811 8.6 8.6 0 0 1-1.924-2.678 7.7 7.7 0 0 1-.692-3.26q0-1.686.675-3.182a8.1 8.1 0 0 1 1.873-2.614 8.9 8.9 0 0 1 2.801-1.764 9 9 0 0 1 3.409-.646q1.992 0 3.493.882a7.2 7.2 0 0 1 2.43 2.252zm-5.67 13.592q1.671 0 2.886-.756a5.13 5.13 0 0 0 1.89-2.079q.675-1.307.675-2.882 0-1.606-.675-2.898a5.14 5.14 0 0 0-1.907-2.063q-1.215-.772-2.87-.772-1.67 0-3.037.772a6 6 0 0 0-2.177 2.079q-.793 1.291-.793 2.882 0 1.59.827 2.898a6.15 6.15 0 0 0 2.194 2.063 6.07 6.07 0 0 0 2.987.756m21.56-13.592h3.004L96.038 35.75h-3.004l3.054-7.875-6.058-15.75h3.105l4.37 12.112zm17.343 0h2.835v16.254q0 1.56-.726 2.898a7.5 7.5 0 0 1-1.924 2.347 9 9 0 0 1-2.767 1.559 9.4 9.4 0 0 1-3.24.567 8.15 8.15 0 0 1-3.392-.74 9.4 9.4 0 0 1-2.869-1.953q-1.215-1.213-1.755-2.725l2.599-1.102a4.74 4.74 0 0 0 1.148 1.953 6.3 6.3 0 0 0 1.957 1.386q1.13.52 2.312.52a6.4 6.4 0 0 0 2.143-.363 6.4 6.4 0 0 0 1.873-1.008 4.6 4.6 0 0 0 1.316-1.496q.49-.85.49-1.843v-3.134a6.8 6.8 0 0 1-2.278 2.205q-1.4.834-3.274.835a8.7 8.7 0 0 1-3.358-.646 8.7 8.7 0 0 1-2.751-1.78 8.6 8.6 0 0 1-1.856-2.646 7.7 7.7 0 0 1-.675-3.213q0-1.717.675-3.213a8.4 8.4 0 0 1 1.856-2.646 8.6 8.6 0 0 1 2.751-1.796 8.7 8.7 0 0 1 3.358-.645q1.873 0 3.274.835a6.6 6.6 0 0 1 2.278 2.204zm-5.535 13.592q1.636 0 2.835-.787a5.3 5.3 0 0 0 1.873-2.095 6.2 6.2 0 0 0 .658-2.835q0-1.576-.675-2.866a5.17 5.17 0 0 0-1.873-2.08q-1.198-.787-2.818-.787a5.64 5.64 0 0 0-2.903.772 5.8 5.8 0 0 0-2.092 2.079q-.76 1.291-.76 2.882 0 1.59.777 2.898a6.04 6.04 0 0 0 2.092 2.063q1.317.756 2.886.756m11.077 2.158v-15.75h2.835v1.969a6.4 6.4 0 0 1 2.262-1.748 6.7 6.7 0 0 1 2.97-.662q.978 0 1.89.236l-1.148 2.646a4.7 4.7 0 0 0-1.35-.204q-1.266 0-2.329.582a4.5 4.5 0 0 0-1.67 1.544 3.95 3.95 0 0 0-.625 2.173v9.214zm10.68-15.75h2.835v15.75h-2.835zm1.452-2.567q-.675 0-1.131-.41a1.32 1.32 0 0 1-.456-1.023q0-.615.456-1.024t1.114-.41 1.114.41q.455.41.455 1.024t-.455 1.023q-.44.41-1.097.41m17.441-5.308h2.835v23.625h-2.835v-2.677a6.6 6.6 0 0 1-2.312 2.236q-1.452.85-3.409.85a9.1 9.1 0 0 1-3.443-.645 9.3 9.3 0 0 1-2.835-1.78 8.6 8.6 0 0 1-1.906-2.646 7.55 7.55 0 0 1-.692-3.213q0-1.717.692-3.213a8.3 8.3 0 0 1 1.906-2.646 9.1 9.1 0 0 1 2.835-1.796 9.1 9.1 0 0 1 3.443-.645q1.957 0 3.409.85a6.6 6.6 0 0 1 2.312 2.237zm-5.687 21.467q1.67 0 2.885-.756a5.1 5.1 0 0 0 1.89-2.079q.675-1.307.675-2.882 0-1.607-.675-2.898a5.13 5.13 0 0 0-1.907-2.063q-1.215-.772-2.868-.772-1.671 0-3.038.772a6 6 0 0 0-2.16 2.079q-.81 1.291-.81 2.882 0 1.59.827 2.898a6.15 6.15 0 0 0 2.194 2.063 6.07 6.07 0 0 0 2.987.756m16.367 2.457a9.6 9.6 0 0 1-2.667-.472 8 8 0 0 1-2.261-1.182q-.961-.756-1.401-1.732l2.43-.977q.254.535.912 1.008a5.6 5.6 0 0 0 1.518.756 5.5 5.5 0 0 0 1.739.284q.928 0 1.738-.268.81-.267 1.316-.787.523-.536.523-1.276 0-.788-.574-1.229-.556-.456-1.417-.708a41 41 0 0 0-1.721-.504 20 20 0 0 1-3.105-.977q-1.368-.583-2.16-1.465-.777-.898-.777-2.283 0-1.465.861-2.536.878-1.07 2.295-1.654a7.9 7.9 0 0 1 3.037-.583q2.043 0 3.73.82 1.688.818 2.514 2.22l-2.278 1.244a2.8 2.8 0 0 0-.877-.992 4.7 4.7 0 0 0-1.35-.693 5.2 5.2 0 0 0-1.553-.268 5.6 5.6 0 0 0-1.839.237q-.844.267-1.367.819-.506.536-.506 1.338 0 .788.54 1.197.556.41 1.434.662a60 60 0 0 1 1.941.551 23 23 0 0 1 2.868 1.055q1.333.6 2.143 1.497.828.897.81 2.22 0 1.45-.928 2.536-.928 1.071-2.413 1.638-1.468.567-3.155.504"/></g><defs><linearGradient id="b" x1="18.5" x2="18.5" y1="2" y2="38" gradientUnits="userSpaceOnUse"><stop stop-color="#3558EA"/><stop offset="1" stop-color="#00F"/></linearGradient><linearGradient id="c" x1="23.289" x2="7.433" y1="7.229" y2="54.475" gradientUnits="userSpaceOnUse"><stop offset=".216" stop-color="#1E1983" stop-opacity="0"/><stop offset=".447" stop-color="#1E1983" stop-opacity=".19"/><stop offset=".62" stop-color="#1E1983"/></linearGradient><clipPath id="a"><path fill="#fff" d="M.5 0h173v40H.5z"/></clipPath></defs></svg>
